X:20
T:Gubbstt
T:efter Pelle Fors
R:Gubbstt
O:Vikbolandet, \~nstergtland
S:efter Pelle Fors
B:Ltar efter Pelle Fors
Z:Bjrn Ek 2009-01-01
N:Nr 20 i Ltar efter Pelle Fors
M:3/4
L:1/8
K:G
%
|:{/B}d>d d2 B2|g>g g2 d2|ff/g/ fe c2|e>e e>d B2|
{/B}d>d d2 B2  |g>g g2 d2|f>f f>e c>A|G2 G4    :|
%
|:G>A B>c d>B|A>B c>e d2|ff/g/ f>e c2|ee/f/ ed B2|
G>A B>c d>B  |A>B c>e d2|ff/g/ f>e c>A|G2 G4    :|
%
